X: 1
T: Gathering Peascods
O: 1650
N:
N: J.Barlow p.22 #27
N: Barnes (in A)
N: Playford (in G)
N: Keller p.38 (in A)
N: Karpeles p.12 (in A)
N: Raven p.22 (in A)
Z: John Chambers <jc@trillian.mit.edu>
M: C|
L: 1/4
P: Play 3 times
K: A
|: z | "A"e2 ee | c>d ee | "D"fe dc | "E7"B3 c | BA AG | "A"A3 :|
|: A | "E"GE GA | B2 cB | "A"A/B/c BA | "E"G3 G | "B7"FE ~F>E | "E"E3 :|
|: e | "A"cA AB/c/ | "D"d2 ze | "A"cA AB/c/ | "D"d2 ze  | "A"cA AB/c/ | "D"d>ef e/d/ | "A"cd/c/ "E7"~B>A | "A"A3 :|
P: in D
K: D
|: z | "D"a2 aa | f>g aa | "G"ba gf | "A7"e3 f | ed dc | "D"d3 :|
|: d | "A"cA cd | e2 fe | "D"d/e/f ed | "A"c3 c | "E7"BA ~B>A | "A"A3 :|
|: a | "D"fd de/f/ | "G"g2 za | "D"fd de/f/ | "G"g2 za  | "D"fd de/f/ | "G"g>ab a/g/ | "D"fg/f/ "A7"~e>d | "D"d3 :|
